X:3922
T:Das Elsass sch das beschte Land
R:
O:Alsace - Elsass
A:
S:
B:Chansons populaires de l'Alsace
Z:transcription (partition) : eric.forgeot@caramail.com
N:Weckerlin I - p. 316
N:
M:2/4
L:1/8
Q:1/4=130
K:F
C | F>G A>B | c>c c A | B>B B E | F>F F c | 
c>E G>B | (B/A/) (d/c/) c c | c E G B | (B/A/) (d/c/) Hc C |
F>G A>B | c>c c A | B>B B E | F>F F z ||
W:Das Elsass sch das beschte Land /.../
